app/dist/common/images/adesso-ag.svg

<svg height="18" viewBox="0 0 18 18" width="18" xmlns="http://www.w3.org/2000/svg"><path d="m0 0h18v18h-18z" fill="#006ec7"/><g fill="#fffeff"><path d="m12 3h-1v8.5l-3.5 3.5h1.45l3.05-3z"/><path d="m6.22 6.42.28.83c.15-.07.57-.25 1.28-.25.7 0 .88.46.88.67v.33h-1.16c-1 0-1.5.43-1.5 1.29 0 1.07.4 1.71 1.2 1.71.47 0 1.06-.24 1.46-.53v.03l.34.5h1v-3.75c0-.47-.62-1.25-2.22-1.25-.37 0-1.2.08-1.56.42zm2.44 3.28v-.7h-.86c-.6 0-.8.29-.8.5s.1.5.5.5c.34 0 .81-.14 1.16-.3z" fill-rule="evenodd"/></g></svg>

<!-- by TradingView --><svg width="18" height="18" viewBox="0 0 18 18" xmlns="http://www.w3.org/2000/svg"><path fill="#006EC7" d="M0 0h18v18H0z"/><path d="M12 3h-1v8.5L7.5 15h1.45L12 12V3Z" fill="#FFFEFF"/><path fill-rule="evenodd" d="m6.22 6.42.28.83c.15-.07.57-.25 1.28-.25.7 0 .88.46.88.67V8H7.5C6.5 8 6 8.43 6 9.29 6 10.36 6.4 11 7.2 11c.47 0 1.06-.24 1.46-.53v.03L9 11h1V7.25C10 6.78 9.38 6 7.78 6c-.37 0-1.2.08-1.56.42ZM8.66 9.7V9H7.8c-.6 0-.8.29-.8.5 0 .21.1.5.5.5.34 0 .81-.14 1.16-.3Z" fill="#FFFEFF"/></svg>
